X:1
T:    Lord, for thy tender mercy's sake
%%score 1 2 3 4
L:1/8
Q:1/4=96
M:4/4
K:A
V:1 treble nm="Soprano" snm="S"
V:2 treble nm="Alto" snm="A"
V:3 treble-8 nm="Tenor" snm="T"
V:4 bass nm="Bass" snm="bass"
V:1
"^Richard Farrant\n(1530-1585)" E2 | A3 B c2 B2 | A2 d2 B4 | z2 B2 c2 e2 | e2 ^dd e4 | e2 d2 c4 | %6
w: Lord,|for thy ten- der|mer- cy's sake,|lay not our|sins to our charge,|but for- give|
[M:4/4] B2 A2 G2 d2 | c2 B2 A2 cc | B2 A2 A2 G2 | A4 A3 B | c2 d2 c4 | c3 d e2 e2 | f4 e4- | %13
w: that is past, and|give us grace to a-|mend our sin- ful|lives. To de-|cline from sin,|and in- cline to|vir- tue,|
 e4 z4 |: z2 A2 e2 e2 | d2 cB c2 c2 | A6 A2 | d2 d2 c2 BB | A2 B2 G2 E2 | F2 A2 G2 A2 |1 %20
w: |that we may|walk in a per- fect|heart, that|we may walk in a|per- fect heart be-|fore thee now and|
 A2 G2 A4- | A4 z4 :|2 A2 G2 A4- | A4 || z4 z4 | z2 (c3 BAG) | F2 (d3 cBA) | G2 (e3 dcB) | %28
w: e- ver- more,||ev- er- more.|||A\- * * *|men, a\- * * *|men, a\- * * *|
[Q:1/4=94] A2[Q:1/4=91] (f4[Q:1/4=88] e2- |[Q:1/4=87] e[Q:1/4=86] A[Q:1/4=83] d4[Q:1/4=80] c2) | %30
w: ~men, a\- *||
[Q:1/4=80] c8 |] %31
w: men.|
V:2
 E2 | F3 G A2 G2 | F3 A G4 | z2 G2 A2 G2 | B2 BA G4 | E2 F2 A4 |[M:4/4] G2 C2 E2 A2 | A2 F2 F2 AA | %8
w: Lord,|for thy ten- der|mer- cy's sake,|lay not our|sins to our charge,|but for- give|that is past, and|give us grace to a-|
 G2 F2 F2 (ED) | C4 E2 E2 | A2 A2 A4 | A2 A2 A2 A2 | A4 G4 | z4 z2 E2 |: A2 A2 G2 FE | F2 G2 A4 | %16
w: mend our sin- ful *|lives. To de-|cline from sin,|and in- cline to|vir- tue,|that|we may walk in a|per- fect heart,|
 z4 z2 C2 | F2 B,2 E2 GG | F2 F2 E2 E2 | D2 C2 E2 E2 |1 F2 E2 C4 | z4 z2 E2 :|2 F2 E2 C4- | C4 || %24
w: that|we may walk in a|per- fect heart be-|fore thee now and|e- ver- more,|that|ev- er- more.||
 z2 (F3 E D E | C4) A,4- | A,2 (A3 G F2) | E2 (=G3 FED) | C2 A2 A2 (AG | F6 E2) | E8 |] %31
w: A\- * * *|* men,|* a\- * *|men, a\- * * *|~men, a- men, a\- *||men.|
V:3
 c2 | c3 e e2 e2 | c2 f2 e4 | z2 e2 e2 e2 | f2 ff e4 | c2 d2 e4 |[M:4/4][K:treble-8] e2 A2 B2 f2 | %7
w: Lord,|for thy ten- der|mer- cy's sake,|lay not our|sins to our charge,|but for- give|that is past, and|
 e2 d2 c2 ee | e2 c2 d2 B2 | A4 c3 d | e2 f2 e4 | e3 d c2 c2 | d4 B2 B2 | c2 c2 B2 ce |: %14
w: give us grace to a-|mend our sin- ful|lives. To de-|cline from sin,|and in- cline to|vir- tue, that|we may walk in a|
 d (cBA) B2 cc | d2 d2 e2 c2 | f2 f2 e2 dc | B2 B2 A2 ee | c2 d2 B2 A2 | A2 A2 B2 c2 |1 %20
w: per- fect * * heart, in a|per- fect heart, that|we may walk in a|per- fect heart, in a|per- fect heart be-|fore thee now and|
 B2 B2 A2 A2 | c2 c2 B2 ce :|2 B2 B2 A4- | A4 || A8 | A2 (e3 dcB) | A2 (f3 edc) | B6 (e2- | %28
w: e- ver- more, that|we may walk in a|ev- er- more.||A-|men, a\- * * *|men, a\- * * *|men, a\-|
 e d c2 d2 A2- | A4) A4- | A8 |] %31
w: |* men.||
V:4
 A,2 | F,3 E, A,2 E,2 | F,2 D,2 E,4 | z2 E,2 A,2 C2 | B,2 B,B, E,4 | C2 B,2 A,4 | %6
w: Lord,|for thy ten- der|mer- cy's sake,|lay not our|sins to our charge,|but for- give|
[M:4/4] E,2 F,2 E,2 D,2 | A,2 B,2 F,2 C,C, | E,2 F,2 D,2 E,2 | A,,4 A,2 A,2 | A,2 F,2"^#" A,4 | %11
w: that is past, and|give us grace to a-|mend our sin- ful|lives. To de-|cline from sin,|
 A,2 A,2 A,2 A,2 | D,4 E,2 E,2 | A,2 A,2 G,2 F,E, |: F,2 F,2 E,2 D,C, | B,,2 B,,2 A,,2 A,2 | %16
w: and in- cline to|vir- tue, that|we may walk in a|per- fect heart, in a|per- fect heart, that|
 D2 D2 C2 B,A, | A,2 G,2 A,2 E,E, | F,2 B,,2 E,2 A,,2 | D,2 F,2 E,2 C,2 |1 D,2 E,2 A,,2 A,,2 | %21
w: we may walk in a|per- fect heart, in a|per- fect heart be-|fore thee now and|e- ver- more, that|
 A,2 A,2 G,2 F,E, :|2 D,2 E,2 A,,4- | A,,4 || z2 (D,3 E,F,G,) | A,2 (A,,3 B,, C,2) | D,8 | %27
w: we may walk in a|ev- er- more.||A\- * * *|men, a\- * *|men,|
 E,4 E,4 | (F,3 E, D,2 C,2 | D,4) A,,4- | A,,8 |] %31
w: a- men,|a\- * * *|* men.||

